packages/foundations/assets/icons/functional/images/devices/telephone_12.svg

<svg width="12" height="12" viewBox="0 0 12 12" fill="none" xmlns="http://www.w3.org/2000/svg">
<g clip-path="url(#clip0_231_170)">
<path fill-rule="evenodd" clip-rule="evenodd" d="M3.65038 1.37177C3.97004 1.37177 4.28963 1.47828 4.52635 1.72682L5.95864 3.17093C6.14802 3.36037 6.23089 3.58528 6.23089 3.822C6.23089 4.08243 6.12432 4.3428 5.93494 4.53224L5.44961 5.01751C6.04224 5.7897 6.22871 6.01399 6.96477 6.55631L7.48556 6.03551C7.675 5.84613 7.92355 5.77509 8.14845 5.77509C8.38518 5.77509 8.61008 5.86978 8.79946 6.04734L10.2199 7.49145C10.4685 7.74005 10.575 8.05965 10.575 8.37924C10.575 9.25515 9.21381 10.6282 8.12481 10.6282C5.27811 10.6282 1.42505 6.77654 1.42505 4.04691C1.42505 2.79672 2.58224 1.37177 3.65038 1.37177ZM3.63723 2.52253C3.61492 2.51993 3.5794 2.53175 3.54387 2.55545C3.04672 2.79217 2.58509 3.49053 2.58509 4.04691C2.58509 6.07904 5.99981 9.45635 7.92355 9.45635C8.5391 9.45635 8.85869 9.1841 9.36766 8.5568C9.46235 8.4147 9.43871 8.35554 9.40319 8.29637L8.14845 7.02982L7.43822 7.71635C7.31989 7.81104 7.18967 7.89391 7.02394 7.89391C6.38232 7.89391 4.12389 5.64111 4.12389 4.94652C4.12389 4.7926 4.17124 4.66239 4.28963 4.55588L4.97616 3.84564L3.70961 2.55545C3.68876 2.53193 3.66536 2.52253 3.63723 2.52253Z" fill="#1A1C1F"/>
</g>
<defs>
<clipPath id="clip0_231_170">
<rect width="12" height="12" fill="white"/>
</clipPath>
</defs>
</svg>

<svg xmlns="http://www.w3.org/2000/svg" width="12" height="12" fill="none"><g clip-path="url(#a)"><path fill="#1A1C1F" fill-rule="evenodd" d="M3.65 1.372c.32 0 .64.106.876.355L5.96 3.17c.189.19.272.414.272.651 0 .26-.107.52-.296.71l-.485.486c.592.772.779.996 1.515 1.538l.52-.52a.945.945 0 0 1 1.314.012l1.42 1.443c.25.25.356.569.356.888 0 .876-1.361 2.25-2.45 2.25-2.847 0-6.7-3.852-6.7-6.582 0-1.25 1.157-2.675 2.225-2.675m-.013 1.15c-.022-.002-.058.01-.093.033-.497.237-.959.936-.959 1.492 0 2.032 3.415 5.41 5.339 5.41.615 0 .935-.273 1.444-.9.094-.142.07-.201.035-.26L8.148 7.03l-.71.686c-.118.095-.248.178-.414.178-.642 0-2.9-2.253-2.9-2.947 0-.154.047-.285.166-.391l.686-.71-1.266-1.29a.09.09 0 0 0-.073-.033" clip-rule="evenodd"/></g><defs><clipPath id="a"><path fill="#fff" d="M0 0h12v12H0z"/></clipPath></defs></svg>
